X:3822
T:Danza (CT 78)
R:Danza
C:Trad.
Z:Cancioneru de Torner 78
M:6/8
L:1/8
Q:3/8=80
W:Si quieres cantar,
W:canta cantares con sustanza.
W:Si queris cantarelos,
W:que yo cantares selos.
W:
W:Aquella rapazona
W:ya nun come borona.
W:
W:Aquel agurrumbu
W:trai xugn coloru.
W:
W:Aquel espantaxatos
W:nunca gast zapatos.
K:C
"Coro"B|:d2d d2d|e3 c2d|e2e d2c|B3 B3-|B2 z4|
"Solo"z5 G|B2B B2B|c3 A2B|c2c B2A|G3 G3-|[1 G2z3 B:|[2 G2 z4||
